mono-glyphs/game-w.svg

<svg xmlns="http://www.w3.org/2000/svg" width="1024" height="1024" fill="none" viewBox="0 0 1024 1024">
  <g clip-path="url(#a)">
    <path fill="#fff" d="M671.5 160c32.333 0 63.5 4.167 93.5 12.5s58 20.167 84 35.5c26 15.333 49.75 33.75 71.25 55.25s39.917 45.25 55.25 71.25c15.333 26 27.17 54 35.5 84 8.33 30 12.5 61.167 12.5 93.5s-4.17 63.5-12.5 93.5-20.167 58-35.5 84c-15.333 26-33.75 49.75-55.25 71.25S875 800.667 849 816c-26 15.333-54 27.167-84 35.5-30 8.333-61.167 12.5-93.5 12.5h-320c-32.333 0-63.5-4.167-93.5-12.5s-58-20.167-84-35.5c-26-15.333-49.75-33.75-71.25-55.25S62.833 715.5 47.5 689.5c-15.333-26-27.167-54-35.5-84C3.667 575.5-.5 544.333-.5 512s4.167-63.5 12.5-93.5 20.167-58 35.5-84c15.333-26 33.75-49.75 55.25-71.25S148 223.333 174 208c26-15.333 54-27.167 84-35.5 30-8.333 61.167-12.5 93.5-12.5h320Zm0 640c39.667 0 77-7.583 112-22.75S849 741.5 875 715.5s46.583-56.5 61.75-91.5c15.167-35 22.75-72.333 22.75-112 0-26.333-3.417-51.75-10.25-76.25s-16.5-47.417-29-68.75-27.583-40.833-45.25-58.5-37.167-32.75-58.5-45.25-44.25-22.167-68.75-29c-24.5-6.833-49.917-10.25-76.25-10.25h-320c-39.667 0-77 7.583-112 22.75S174 282.5 148 308.5 101.417 365 86.25 400C71.083 435 63.5 472.333 63.5 512c0 40 7.5 77.5 22.5 112.5s35.5 65.5 61.5 91.5 56.5 46.5 91.5 61.5S311.5 800 351.5 800h320Zm-224-288c0 8.667-3.167 16.167-9.5 22.5-6.333 6.333-13.833 9.5-22.5 9.5h-96v96c0 8.667-3.167 16.167-9.5 22.5-6.333 6.333-13.833 9.5-22.5 9.5s-16.167-3.167-22.5-9.5c-6.333-6.333-9.5-13.833-9.5-22.5v-96h-96c-8.667 0-16.167-3.167-22.5-9.5-6.333-6.333-9.5-13.833-9.5-22.5s3.167-16.167 9.5-22.5c6.333-6.333 13.833-9.5 22.5-9.5h96v-96c0-8.667 3.167-16.167 9.5-22.5 6.333-6.333 13.833-9.5 22.5-9.5s16.167 3.167 22.5 9.5c6.333 6.333 9.5 13.833 9.5 22.5v96h96c8.667 0 16.167 3.167 22.5 9.5 6.333 6.333 9.5 13.833 9.5 22.5Zm384-96c0 9-1.667 17.333-5 25-3.333 7.667-7.917 14.417-13.75 20.25S800.167 471.667 792.5 475s-16 5-25 5-17.417-1.667-25.25-5c-7.833-3.333-14.583-7.833-20.25-13.5s-10.167-12.417-13.5-20.25-5-16.25-5-25.25 1.667-17.333 5-25c3.333-7.667 7.917-14.417 13.75-20.25s12.583-10.417 20.25-13.75 16-5 25-5c8.667 0 16.917 1.667 24.75 5 7.833 3.333 14.667 7.917 20.5 13.75s10.417 12.667 13.75 20.5 5 16.083 5 24.75Zm-128 192c0 9-1.667 17.333-5 25-3.333 7.667-7.917 14.417-13.75 20.25S672.167 663.667 664.5 667s-16 5-25 5-17.417-1.667-25.25-5c-7.833-3.333-14.583-7.833-20.25-13.5s-10.167-12.417-13.5-20.25-5-16.25-5-25.25 1.667-17.333 5-25c3.333-7.667 7.917-14.417 13.75-20.25s12.583-10.417 20.25-13.75 16-5 25-5c8.667 0 16.917 1.667 24.75 5 7.833 3.333 14.667 7.917 20.5 13.75s10.417 12.667 13.75 20.5 5 16.083 5 24.75Z"/>
  </g>
  <defs>
    <clipPath id="a">
      <path fill="#fff" d="M0 0h1024v1024H0z"/>
    </clipPath>
  </defs>
</svg>

<svg width="1024" height="1024" viewBox="0 0 1024 1024" fill="none" xmlns="http://www.w3.org/2000/svg">
<g clip-path="url(#clip0_47_1369)">
<mask id="mask0_47_1369" style="mask-type:luminance" maskUnits="userSpaceOnUse" x="-1" y="160" width="1025" height="704">
<path d="M1023.5 160H-0.5V864H1023.5V160Z" fill="white"/>
</mask>
<g mask="url(#mask0_47_1369)">
<path d="M671.5 160C703.833 160 735 164.167 765 172.5C795 180.833 823 192.667 849 208C875 223.333 898.75 241.75 920.25 263.25C941.75 284.75 960.167 308.5 975.5 334.5C990.833 360.5 1002.67 388.5 1011 418.5C1019.33 448.5 1023.5 479.667 1023.5 512C1023.5 544.333 1019.33 575.5 1011 605.5C1002.67 635.5 990.833 663.5 975.5 689.5C960.167 715.5 941.75 739.25 920.25 760.75C898.75 782.25 875 800.667 849 816C823 831.333 795 843.167 765 851.5C735 859.833 703.833 864 671.5 864H351.5C319.167 864 288 859.833 258 851.5C228 843.167 200 831.333 174 816C148 800.667 124.25 782.25 102.75 760.75C81.25 739.25 62.8333 715.5 47.5 689.5C32.1667 663.5 20.3333 635.5 12 605.5C3.66667 575.5 -0.5 544.333 -0.5 512C-0.5 479.667 3.66667 448.5 12 418.5C20.3333 388.5 32.1667 360.5 47.5 334.5C62.8333 308.5 81.25 284.75 102.75 263.25C124.25 241.75 148 223.333 174 208C200 192.667 228 180.833 258 172.5C288 164.167 319.167 160 351.5 160H671.5ZM671.5 800C711.167 800 748.5 792.417 783.5 777.25C818.5 762.083 849 741.5 875 715.5C901 689.5 921.583 659 936.75 624C951.917 589 959.5 551.667 959.5 512C959.5 485.667 956.083 460.25 949.25 435.75C942.417 411.25 932.75 388.333 920.25 367C907.75 345.667 892.667 326.167 875 308.5C857.333 290.833 837.833 275.75 816.5 263.25C795.167 250.75 772.25 241.083 747.75 234.25C723.25 227.417 697.833 224 671.5 224H351.5C311.833 224 274.5 231.583 239.5 246.75C204.5 261.917 174 282.5 148 308.5C122 334.5 101.417 365 86.25 400C71.0833 435 63.5 472.333 63.5 512C63.5 552 71 589.5 86 624.5C101 659.5 121.5 690 147.5 716C173.5 742 204 762.5 239 777.5C274 792.5 311.5 800 351.5 800H671.5ZM447.5 512C447.5 520.667 444.333 528.167 438 534.5C431.667 540.833 424.167 544 415.5 544H319.5V640C319.5 648.667 316.333 656.167 310 662.5C303.667 668.833 296.167 672 287.5 672C278.833 672 271.333 668.833 265 662.5C258.667 656.167 255.5 648.667 255.5 640V544H159.5C150.833 544 143.333 540.833 137 534.5C130.667 528.167 127.5 520.667 127.5 512C127.5 503.333 130.667 495.833 137 489.5C143.333 483.167 150.833 480 159.5 480H255.5V384C255.5 375.333 258.667 367.833 265 361.5C271.333 355.167 278.833 352 287.5 352C296.167 352 303.667 355.167 310 361.5C316.333 367.833 319.5 375.333 319.5 384V480H415.5C424.167 480 431.667 483.167 438 489.5C444.333 495.833 447.5 503.333 447.5 512ZM831.5 416C831.5 425 829.833 433.333 826.5 441C823.167 448.667 818.583 455.417 812.75 461.25C806.917 467.083 800.167 471.667 792.5 475C784.833 478.333 776.5 480 767.5 480C758.5 480 750.083 478.333 742.25 475C734.417 471.667 727.667 467.167 722 461.5C716.333 455.833 711.833 449.083 708.5 441.25C705.167 433.417 703.5 425 703.5 416C703.5 407 705.167 398.667 708.5 391C711.833 383.333 716.417 376.583 722.25 370.75C728.083 364.917 734.833 360.333 742.5 357C750.167 353.667 758.5 352 767.5 352C776.167 352 784.417 353.667 792.25 357C800.083 360.333 806.917 364.917 812.75 370.75C818.583 376.583 823.167 383.417 826.5 391.25C829.833 399.083 831.5 407.333 831.5 416ZM703.5 608C703.5 617 701.833 625.333 698.5 633C695.167 640.667 690.583 647.417 684.75 653.25C678.917 659.083 672.167 663.667 664.5 667C656.833 670.333 648.5 672 639.5 672C630.5 672 622.083 670.333 614.25 667C606.417 663.667 599.667 659.167 594 653.5C588.333 647.833 583.833 641.083 580.5 633.25C577.167 625.417 575.5 617 575.5 608C575.5 599 577.167 590.667 580.5 583C583.833 575.333 588.417 568.583 594.25 562.75C600.083 556.917 606.833 552.333 614.5 549C622.167 545.667 630.5 544 639.5 544C648.167 544 656.417 545.667 664.25 549C672.083 552.333 678.917 556.917 684.75 562.75C690.583 568.583 695.167 575.417 698.5 583.25C701.833 591.083 703.5 599.333 703.5 608Z" fill="white"/>
</g>
</g>
<defs>
<clipPath id="clip0_47_1369">
<rect width="1024" height="1024" fill="white"/>
</clipPath>
</defs>
</svg>
